packs/brands/fedora.svg

<svg xmlns="http://www.w3.org/2000/svg" viewBox="0 0 448 512"><!--! Font Awesome Free 6.5.2 by @fontawesome - https://fontawesome.com License - https://fontawesome.com/license/free (Icons: CC BY 4.0, Fonts: SIL OFL 1.1, Code: MIT License) Copyright 2024 Fonticons, Inc.--><path d="M.041 255.8C.121 132.2 100.3 32 224 32s224 100.3 224 224-100.2 223.9-223.9 224H50.93C22.84 480 .083 457.3.042 429.2H0V255.8zM342.6 192.7c0-39.7-35.6-68.5-73.2-68.5-34.9 0-65.8 26.3-70.1 59.9-.2 3.8-.4 5-.4 8.5-.1 21.1 0 42.8-.8 64.4.9 26.1 1 52.1 0 76.6 0 27.1-19.4 45.5-44.7 45.5s-45.8-20.2-45.8-45.5c.5-27.7 22.6-45.3 48.5-46.1h.2l26.3-.2V250l-26.3.2c-47.1-.4-84.58 36.5-85.94 83.4 0 45.6 37.54 82.9 83.04 82.9 43 0 78.7-33.6 82.6-75.6l.2-53.5 32.6-.3c25.3.2 25-37.8-.2-37.3l-32.4.3c0-6.4.1-12.8.1-19.2.1-12.7.1-25.4-.1-38.2.1-16.5 15.8-31.2 33.2-31.2 17.5 0 35.9 8.7 35.9 31.2 0 3.2-.1 5.1-.3 6.3-1.9 10.5 5.2 20.4 15.7 21.9 10.6 1.5 20.2-6.1 21.2-16.6.6-4.2.7-7.9.7-11.6"/></svg>

<svg xmlns="http://www.w3.org/2000/svg" viewBox="0 0 448 512"><!--! Font Awesome Free 6.5.2 by @fontawesome - https://fontawesome.com License - https://fontawesome.com/license/free (Icons: CC BY 4.0, Fonts: SIL OFL 1.1, Code: MIT License) Copyright 2024 Fonticons, Inc. --><path d="M.0413 255.8C.1219 132.2 100.3 32 224 32C347.7 32 448 132.3 448 256C448 379.7 347.8 479.9 224.1 480H50.93C22.84 480 .0832 457.3 .0416 429.2H0V255.8H.0413zM342.6 192.7C342.6 153 307 124.2 269.4 124.2C234.5 124.2 203.6 150.5 199.3 184.1C199.1 187.9 198.9 189.1 198.9 192.6C198.8 213.7 198.9 235.4 198.1 257C199 283.1 199.1 309.1 198.1 333.6C198.1 360.7 178.7 379.1 153.4 379.1C128.1 379.1 107.6 358.9 107.6 333.6C108.1 305.9 130.2 288.3 156.1 287.5H156.3L182.6 287.3V250L156.3 250.2C109.2 249.8 71.72 286.7 70.36 333.6C70.36 379.2 107.9 416.5 153.4 416.5C196.4 416.5 232.1 382.9 236 340.9L236.2 287.4L268.8 287.1C294.1 287.3 293.8 249.3 268.6 249.8L236.2 250.1C236.2 243.7 236.3 237.3 236.3 230.9C236.4 218.2 236.4 205.5 236.2 192.7C236.3 176.2 252 161.5 269.4 161.5C286.9 161.5 305.3 170.2 305.3 192.7C305.3 195.9 305.2 197.8 305 199C303.1 209.5 310.2 219.4 320.7 220.9C331.3 222.4 340.9 214.8 341.9 204.3C342.5 200.1 342.6 196.4 342.6 192.7H342.6z"/></svg>
